public/img/logos/Zomato.svg

<?xml version="1.0" encoding="UTF-8" standalone="no"?><svg width="720px" height="720px" viewBox="0 0 720 720" version="1.1" xmlns="http://www.w3.org/2000/svg" xmlns:xlink="http://www.w3.org/1999/xlink"><title>zomato_logo</title><desc>Created with Sketch.</desc><defs></defs><g id="Page-1" stroke="none" stroke-width="1" fill="none" fill-rule="evenodd"><g id="zomato_logo"><g id="Logo"><rect id="Rectangle" fill="#CB202D" x="0" y="0" width="720" height="720" rx="28.7999992"></rect><path d="M142.616538,406.912056 L142.616538,391.086883 L90.8394979,391.086883 L142.616538,332.571465 L142.616538,319.301421 L67.7740855,319.301421 L67.7742986,335.12979 L117.77724,335.12979 L66.0002,393.645208 L66.0002,406.912056 L142.616538,406.912056 Z M199.456951,408.83 C226.563899,408.83 246.563797,388.208901 246.563797,363.268165 L246.563797,362.948508 C246.563797,337.846878 226.723727,317.543305 199.787264,317.543305 C172.690972,317.543305 152.684681,338.327429 152.684681,363.268165 L152.684681,363.587823 C152.684681,388.528559 172.520488,408.83 199.456951,408.83 L199.456951,408.83 Z M199.787264,392.045855 C183.65522,392.045855 172.041002,378.93564 172.041002,363.268165 L172.041002,362.948508 C172.041002,347.439796 182.845422,334.329581 199.456951,334.329581 C215.588995,334.329581 227.203214,347.599625 227.203214,363.268165 L227.203214,363.587823 C227.203214,379.095469 216.398793,392.045855 199.787264,392.045855 L199.787264,392.045855 Z M263.729399,406.912056 L283.079327,406.912056 L283.079327,357.512201 C283.079327,343.762671 291.145349,335.12979 302.759568,335.12979 C314.373786,335.12979 321.150523,342.803699 321.150523,356.713058 L321.150523,406.912056 L340.66028,406.912056 L340.66028,357.352372 C340.66028,342.963527 348.88613,335.12979 360.180692,335.12979 C371.794911,335.12979 378.731476,342.803699 378.731476,357.032715 L378.731476,406.912056 L398.092059,406.912056 L398.092059,351.276751 C398.092059,329.853312 386.307357,317.543305 366.957429,317.543305 C353.244126,317.543305 344.048648,323.77769 336.952254,333.050951 C332.274601,323.77769 323.249607,317.543305 310.346103,317.543305 C296.632801,317.543305 288.886436,324.897557 283.079327,332.891123 L283.079327,319.301421 L263.729399,319.301421 L263.729399,406.912056 L263.729399,406.912056 Z M450.089663,394.60418 C440.25487,394.60418 432.348677,389.647359 432.348677,380.85465 L432.348677,380.534993 C432.348677,371.261731 440.25487,365.505767 453.63786,365.505767 C462.023539,365.505767 469.130589,367.10512 474.447557,369.02413 L474.447557,375.418343 C474.447557,386.770443 463.962794,394.60418 450.089663,394.60418 L450.089663,394.60418 Z M444.932524,408.670171 C458.645826,408.670171 468.001133,402.916338 473.968071,395.722981 L473.968071,406.912056 L492.838513,406.912056 L492.838513,354.794048 C492.838513,343.283185 489.92963,334.169752 483.483206,327.935367 C477.185955,321.699917 467.351163,318.18262 454.28783,318.18262 C440.25487,318.18262 430.739735,321.060602 421.054116,325.377043 L426.221911,340.405203 C434.287932,337.047734 441.703984,334.969961 451.709261,334.969961 C466.221706,334.969961 474.127899,341.844726 474.127899,354.634219 L474.127899,356.872886 C467.191334,354.634219 459.935111,353.195761 449.929834,353.195761 C428.320994,353.195761 413.318407,362.469022 413.318407,381.334136 L413.318407,381.653793 C413.318407,399.240278 428.320994,408.670171 444.932524,408.670171 L444.932524,408.670171 Z M542.587859,408.350514 C550.003911,408.350514 555.491363,406.752227 560.488674,404.035139 L560.488674,388.208901 C556.46099,390.127911 552.422652,391.246712 547.904827,391.246712 C540.808433,391.246712 536.620921,387.889244 536.620921,379.895678 L536.620921,335.928933 L560.808331,335.928933 L560.808331,319.301421 L536.620921,319.301421 L536.620921,295 L517.260338,295 L517.260338,319.301421 L505.805948,319.301421 L505.805948,335.928933 L517.260338,335.928933 L517.260338,382.933489 C517.260338,401.957366 527.745101,408.350514 542.587859,408.350514 L542.587859,408.350514 Z M662.270776,363.268165 L662.270776,362.948508 C662.270776,337.846878 642.430707,317.543305 615.494243,317.543305 C588.397951,317.543305 568.398053,338.327429 568.398053,363.268165 L568.398053,363.587823 C568.398053,388.528559 588.238122,408.83 615.174586,408.83 C642.270878,408.83 662.270776,388.208901 662.270776,363.268165 Z M615.494243,392.045855 C599.3622,392.045855 587.747981,378.93564 587.747981,363.268165 L587.747981,362.948508 C587.747981,347.439796 598.563056,334.329581 615.174586,334.329581 C631.306629,334.329581 642.910193,347.599625 642.910193,363.268165 L642.910193,363.587823 C642.910193,379.095469 632.105773,392.045855 615.494243,392.045855 L615.494243,392.045855 Z" id="Shape" fill="#FFFFFF"></path></g></g></g></svg>

<svg width="720" height="720" xmlns="http://www.w3.org/2000/svg">
  <g fill="none" fill-rule="evenodd">
    <rect fill="#CB202D" width="720" height="720" rx="28.8"/>
    <path d="M142.617 406.912v-15.825H90.839l51.778-58.516v-13.27H67.774v15.829h50.003L66 393.645v13.267h76.617zm56.84 1.918c27.107 0 47.107-20.621 47.107-45.562v-.32c0-25.101-19.84-45.405-46.777-45.405-27.096 0-47.102 20.784-47.102 45.725v.32c0 24.94 19.835 45.242 46.772 45.242zm.33-16.784c-16.132 0-27.746-13.11-27.746-28.778v-.32c0-15.508 10.804-28.618 27.416-28.618 16.132 0 27.746 13.27 27.746 28.938v.32c0 15.507-10.804 28.458-27.416 28.458zm63.942 14.866h19.35v-49.4c0-13.75 8.066-22.382 19.68-22.382 11.615 0 18.392 7.674 18.392 21.583v50.2h19.51v-49.56c0-14.39 8.225-22.223 19.52-22.223 11.614 0 18.55 7.674 18.55 21.903v49.88h19.361v-55.636c0-21.424-11.785-33.734-31.135-33.734-13.713 0-22.908 6.235-30.005 15.508-4.677-9.273-13.702-15.508-26.606-15.508-13.713 0-21.46 7.355-27.267 15.348v-13.59h-19.35v87.611zm186.36-12.308c-9.834 0-17.74-4.957-17.74-13.75v-.319c0-9.273 7.906-15.03 21.289-15.03 8.386 0 15.493 1.6 20.81 3.52v6.393c0 11.352-10.485 19.186-24.358 19.186zm-5.156 14.066c13.713 0 23.068-5.754 29.035-12.947v11.19h18.87v-52.119c0-11.51-2.908-20.624-9.355-26.859-6.297-6.235-16.132-9.752-29.195-9.752-14.033 0-23.548 2.878-33.234 7.194l5.168 15.028c8.066-3.357 15.482-5.435 25.487-5.435 14.513 0 22.419 6.875 22.419 19.664v2.239c-6.937-2.239-14.193-3.677-24.198-3.677-21.609 0-36.612 9.273-36.612 28.138v.32c0 17.586 15.003 27.016 31.615 27.016zm97.655-.32c7.416 0 12.903-1.598 17.9-4.315V388.21c-4.027 1.919-8.065 3.038-12.583 3.038-7.097 0-11.284-3.358-11.284-11.351v-43.967h24.187V319.3h-24.187V295h-19.36v24.301h-11.455v16.628h11.454v47.004c0 19.024 10.485 25.418 25.328 25.418zm119.683-45.082v-.32c0-25.101-19.84-45.405-46.777-45.405-27.096 0-47.096 20.784-47.096 45.725v.32c0 24.94 19.84 45.242 46.777 45.242 27.096 0 47.096-20.621 47.096-45.562zm-46.777 28.778c-16.132 0-27.746-13.11-27.746-28.778v-.32c0-15.508 10.815-28.618 27.427-28.618 16.132 0 27.735 13.27 27.735 28.938v.32c0 15.507-10.804 28.458-27.416 28.458z" fill="#FFF"/>
  </g>
</svg>
